packages/ui-icons/svg/Solid/export-content.svg

<svg viewBox="0 0 1920 1920" version="1.1" xmlns="http://www.w3.org/2000/svg">
    <g stroke="none" stroke-width="1" fill-rule="evenodd">
        <path d="M1352.68518,168.954824 L1352.68518,733.660706 L1917.39106,733.660706 L1917.39106,1750.13129 L675.038118,1750.13129 L675.038118,1072.48424 L216.158118,1072.48424 L489.136941,1345.46306 L409.174588,1425.31247 L-0.0112941176,1016.12659 L409.174588,606.827765 L489.136941,686.677176 L216.158118,959.543059 L675.038118,959.543059 L675.038118,168.954824 L1352.68518,168.954824 Z M1352.68518,959.543059 L787.979294,959.543059 L787.979294,1072.48424 L1352.68518,1072.48424 L1352.68518,959.543059 Z"/>
        <path d="M1465.64894 620.776L1900.47247 620.776 1465.64894 185.839529z"/>
    </g>
</svg>

<svg viewBox="0 0 1920 1920" xmlns="http://www.w3.org/2000/svg">
    <g fill-rule="evenodd">
        <path d="M1352.685 168.955V733.66h564.706v1016.47H675.038v-677.647h-458.88l272.979 272.98-79.962 79.848L-.011 1016.127l409.186-409.3 79.962 79.85-272.979 272.866h458.88V168.955h677.647Zm0 790.588H787.98v112.941h564.706v-112.94Z"/>
        <path d="M1465.649 620.776h434.823L1465.65 185.84z"/>
    </g>
</svg>
